Papirus-Dark/24x24/actions/im-yahoo.svg

<svg xmlns="http://www.w3.org/2000/svg" width="24" height="24" version="1.1">
 <defs>
  <style id="current-color-scheme" type="text/css">
   .ColorScheme-Text { color:#dfdfdf; } .ColorScheme-Highlight { color:#4285f4; }
  </style>
 </defs>
 <path style="fill:currentColor" class="ColorScheme-Text" d="m 16.373047,4.0012139 c -1.017295,2.3303894 -2.055576,4.6532699 -3.060547,6.9882801 1.140321,0.0092 2.283909,0.01818 3.423828,-0.0059 1.027031,-2.3201932 2.041538,-4.6442082 3.0625,-6.9667957 -1.14039,-0.03237 -2.28389,-0.00885 -3.425781,-0.015624 z M 10.900391,7.9992608 C 10.265541,9.5601093 9.6498545,11.130467 9.0039062,12.68676 8.359911,11.134003 7.7553474,9.5636673 7.125,8.0051198 6.0832258,8.0106198 5.0400752,7.9836208 4,8.0168398 5.1441538,10.713393 6.3301286,13.393482 7.4765625,16.089105 7.0703072,17.06206 6.6417168,18.027077 6.2285156,18.997308 c 1.0239113,0.0052 2.0483378,0.0011 3.0722656,0.002 1.5455518,-3.664898 3.1115988,-7.322579 4.6445318,-10.9922342 -1.014819,-0.01338 -2.030021,-0.00584 -3.044922,-0.00781 z M 14,11.99926 a 2,2 0 0 0 -2,2 2,2 0 0 0 2,2 2,2 0 0 0 2,-2 2,2 0 0 0 -2,-2 z"/>
</svg>

<svg xmlns="http://www.w3.org/2000/svg" width="24" height="24" version="1.1">
 <defs>
  <style id="current-color-scheme" type="text/css">
   .ColorScheme-Text { color:#dfdfdf; } .ColorScheme-Highlight { color:#4285f4; }
  </style>
 </defs>
 <path style="fill:currentColor" class="ColorScheme-Text" d="M 16.373,4 13.313,11 H 16.736 L 19.8,4 Z M 10.9,8 9,12.687 7.125,8 H 4 L 7.4766,16.09 6.2285,19 H 9.3008 L 13.945,8.008 Z M 14,12 C 12.895,12 12,12.895 12,14 12,15.105 12.895,16 14,16 15.105,16 16,15.105 16,14 16,12.895 15.105,12 14,12 Z"/>
</svg>
